; Postprocessed by [ArcWelder](https://github.com/FormerLurker/ArcWelderLib)
; Copyright(C) 2021 - Brad Hochgesang
; Version: 1.2.0, Branch: master, BuildDate: 2021-11-22T09:56:32Z
; resolution=0.05mm
; path_tolerance=5.0%
; max_radius=9999.00mm
; default_xyz_precision=3
; default_e_precision=5
; extrusion_rate_variance_percent=5.0%

; generated by AnycubicSlicer 1.2.2 on 2024-01-12 at 13:56:35 UTC




; 

; external perimeters extrusion width = 0.42mm
; perimeters extrusion width = 0.45mm
; infill extrusion width = 0.45mm
; solid infill extrusion width = 0.45mm
; top infill extrusion width = 0.42mm
; support material extrusion width = 0.42mm
; first layer extrusion width = 0.50mm

;TYPE:Custom
G90 ; use absolute coordinates
M83 ; extruder relative mode
M140 S60 ; set bed temp
M190 S60 ; wait for bed temp
M104 S215 ; set extruder temp
M109 S215 ; wait for extruder temp
G28                                        ; move X/Y/Z to min endstops
G1 Z0.28                                   ; lift nozzle a bit 
G92 E0 
G1 Y3 F2400                                    ; zero the extruded length 
G1 X180  E40 F500                       ; Extrude 25mm of filament in a 5cm line. 
G92 E0                                     ; zero the extruded length again 
G1 E-0.2 F3000                                ; Retract a little 
G1 X181 F4000                              ; Quickly wipe away from the filament line
M117
G21 ; set units to millimeters
G90 ; use absolute coordinates
M82 ; use absolute distances for extrusion
G92 E0
M107
;LAYER_CHANGE
;Z:0.25
;HEIGHT:0.25
; BEFORE_LAYER_CHANGE 0 @ 0.25mm
G1 Z.25 F18000
; AFTER_LAYER_CHANGE 0 @ 0.25mm
G1 E-2.5 F4800
G92 E0
M204 S20000
G1 X90.045 Y86.962 F18000
G1 E2.5 F4800
M204 S5000
;TYPE:Support material
;WIDTH:0.5
G1 X90.743 Y86.993 E2.53177
G1 X91.858 Y87.247 E2.58376
G1 X92.91 Y87.697 E2.63578
G1 X93.865 Y88.327 E2.6878
G1 X94.692 Y89.118 E2.73983
G1 X95.364 Y90.043 E2.79181
G1 X95.86 Y91.074 E2.84383
G1 X96.165 Y92.176 E2.89582
G1 X96.267 Y93.316 E2.94786
G1 X96.165 Y94.455 E2.99985
G1 X96.092 Y94.72 E3.01235
G1 X96.521 Y94.819 E3.03237
G1 X97.573 Y95.268 E3.08437
G1 X98.528 Y95.898 E3.13639
G1 X99.355 Y96.689 E3.18842
G1 X100.027 Y97.614 E3.2404
G1 X100.523 Y98.645 E3.29242
G1 X100.739 Y99.427 E3.3293
G1 X101.101 Y99.309 E3.34661
G1 X102.234 Y99.156 E3.39859
G1 X103.377 Y99.207 E3.45061
G1 X104.492 Y99.462 E3.50261
G1 X105.544 Y99.911 E3.55461
G1 X106.499 Y100.541 E3.60663
G1 X106.676 Y100.711 E3.61779
G1 X107.314 Y100.368 E3.65072
G1 X108.402 Y100.014 E3.70274
G1 X109.535 Y99.861 E3.75472
G1 X110.678 Y99.912 E3.80674
G1 X111.793 Y100.167 E3.85874
G1 X112.845 Y100.616 E3.91074
G1 X113.124 Y100.801 E3.92596
G1 X113.54 Y100.325 E3.9547
G1 X114.434 Y99.612 E4.00669
G1 X115.441 Y99.07 E4.05868
G1 X116.529 Y98.717 E4.11068
G1 X117.663 Y98.563 E4.16271
G1 X118.805 Y98.614 E4.21468
G1 X119.957 Y98.877 E4.2684
G1 X120.104 Y98.487 E4.28735
G1 X120.69 Y97.505 E4.33934
G1 X121.443 Y96.643 E4.39138
G1 X122.337 Y95.93 E4.44337
G1 X123.345 Y95.388 E4.4954
G1 X124.218 Y95.104 E4.53714
G1 X124.218 Y94.391 E4.56956
G1 X124.422 Y93.265 E4.62159
G1 X124.824 Y92.194 E4.6736
G1 X125.411 Y91.212 E4.72561
G1 X126.164 Y90.351 E4.77761
G1 X127.058 Y89.637 E4.82963
G1 X128.065 Y89.095 E4.88162
G1 X129.153 Y88.742 E4.93362
G1 X130.287 Y88.588 E4.98565
G1 X131.43 Y88.64 E5.03767
G1 X132.545 Y88.894 E5.08966
G1 X133.597 Y89.344 E5.14168
G1 X134.551 Y89.974 E5.19366
G1 X135.378 Y90.764 E5.24566
G1 X136.051 Y91.69 E5.2977
G1 X136.547 Y92.72 E5.34968
G1 X136.851 Y93.823 E5.4017
G1 X136.954 Y94.962 E5.4537
G1 X136.851 Y96.102 E5.50574
G1 X136.547 Y97.204 E5.55771
G1 X136.051 Y98.235 E5.60973
G1 X135.378 Y99.161 E5.66177
G1 X134.551 Y99.951 E5.71377
G1 X133.597 Y100.581 E5.76575
G1 X132.545 Y101.031 E5.81777
G1 X132.247 Y101.099 E5.83167
G1 X132.13 Y102.394 E5.89079
G1 X131.826 Y103.497 E5.94281
G1 X131.33 Y104.528 E5.99483
G1 X130.657 Y105.453 E6.04684
G1 X129.831 Y106.244 E6.09884
G1 X128.876 Y106.874 E6.15086
G1 X127.824 Y107.324 E6.20288
G1 X126.709 Y107.578 E6.25487
G1 X125.566 Y107.629 E6.30689
G1 X124.433 Y107.476 E6.35887
G1 X123.868 Y107.292 E6.38589
G1 X123.426 Y108.21 E6.43221
G1 X123.045 Y108.734 E6.46167
G1 X123.231 Y109.12 E6.48115
G1 X123.536 Y110.223 E6.53318
G1 X123.638 Y111.362 E6.58517
G1 X123.536 Y112.502 E6.63721
G1 X123.231 Y113.604 E6.6892
G1 X122.735 Y114.635 E6.74122
G1 X122.062 Y115.56 E6.79323
G1 X121.236 Y116.351 E6.84523
G1 X120.281 Y116.981 E6.89725
G1 X119.229 Y117.431 E6.94927
G1 X118.114 Y117.685 E7.00126
G1 X116.971 Y117.737 E7.05328
G1 X116.439 Y117.664 E7.07769
G1 X116.165 Y118.041 E7.09888
G1 X97.801 Y118.041 E7.9338
G1 X97.382 Y117.561 E7.96277
G1 X96.795 Y116.58 E8.01475
G1 X96.393 Y115.509 E8.06676
G1 X96.189 Y114.383 E8.11879
G1 X96.189 Y113.239 E8.1708
G1 X96.393 Y112.114 E8.22278
G1 X96.795 Y111.043 E8.27479
G1 X97.382 Y110.061 E8.3268
G1 X97.711 Y109.684 E8.34955
G1 X97.358 Y109.28 E8.37394
G1 X96.772 Y108.298 E8.42593
G1 X96.288 Y107.009 E8.48853
G1 X95.406 Y107.21 E8.52966
G1 X94.263 Y107.261 E8.58168
G1 X93.13 Y107.108 E8.63366
G1 X92.042 Y106.754 E8.68568
G1 X91.035 Y106.212 E8.73767
G1 X90.14 Y105.499 E8.78969
G1 X89.388 Y104.637 E8.8417
G1 X88.801 Y103.655 E8.89371
G1 X88.399 Y102.584 E8.94572
G1 X88.195 Y101.459 E8.9977
G1 X88.195 Y100.315 E9.04971
G1 X88.343 Y99.496 E9.08755
G1 X87.379 Y99.183 E9.13363
G1 X86.372 Y98.641 E9.18562
G1 X85.477 Y97.928 E9.23764
G1 X84.725 Y97.066 E9.28965
G1 X84.138 Y96.084 E9.34166
G1 X83.736 Y95.013 E9.39367
G1 X83.532 Y93.888 E9.44565
G1 X83.532 Y92.744 E9.49766
G1 X83.736 Y91.618 E9.54969
G1 X84.138 Y90.547 E9.6017
G1 X84.725 Y89.565 E9.65371
G1 X85.477 Y88.704 E9.70568
G1 X86.372 Y87.991 E9.7577
G1 X87.379 Y87.449 E9.80969
G1 X88.467 Y87.095 E9.86171
G1 X89.6 Y86.942 E9.91369
G1 X89.979 Y86.959 E9.93094
M204 S20000
;WIPE_START
G1 F14400
G1 X89.6 Y86.942 E9.8108
G1 X88.467 Y87.095 E9.44876
G1 X87.379 Y87.449 E9.08645
G1 X86.372 Y87.991 E8.72431
G1 X85.477 Y88.704 E8.36195
G1 X84.725 Y89.565 E7.99995
G1 X84.138 Y90.547 E7.63766
G1 X83.909 Y91.158 E7.43094
;WIPE_END
G92 E0
G1 X136.285 Y97.285 F18000
G1 E2.5 F4800
M204 S5000
G1 X136.285 Y93.282 E2.682
G1 X136.169 Y92.862 E2.70181
G1 X135.789 Y92.073 E2.74163
G1 X135.789 Y97.852 E3.00437
G3 X135.293 Y98.594 I-2.309 J-1.006 E3.04506
G1 X135.293 Y91.331 E3.37527
G2 X134.797 Y90.765 I-1.816 J1.091 E3.40962
G1 X134.797 Y99.16 E3.7913
G1 X134.301 Y99.634 E3.82249
G1 X134.301 Y90.291 E4.24727
G1 X133.805 Y89.963 E4.27431
G1 X133.805 Y99.962 E4.72891
G3 X133.309 Y100.267 I-1.065 J-1.176 E4.75545
G1 X133.309 Y89.658 E5.23779
G1 X132.813 Y89.446 E5.26231
G1 X132.813 Y100.479 E5.76392
G3 X132.317 Y100.671 I-0.791 J-1.306 E5.78816
G1 X132.317 Y89.254 E6.30723
G1 X131.821 Y89.141 E6.33036
G1 X131.821 Y101.346 E6.88526
G1 X131.734 Y102.322 E6.92981
G1 X131.448 Y103.355 E6.97854
G1 X131.326 Y103.611 E6.99143
G1 X131.326 Y89.037 E7.65403
G1 X130.83 Y89.015 E7.6766
G1 X130.83 Y104.533 E8.38212
G1 X130.334 Y105.207 E8.42017
G1 X130.334 Y88.992 E9.15738
G1 X129.838 Y89.054 E9.18011
G1 X129.838 Y105.681 E9.93605
G3 X129.342 Y106.085 I-1.380 J-1.188 E9.96524
G1 X129.342 Y89.122 E10.73646
G2 X128.846 Y89.264 I0.134 J1.406 E10.75998
G1 X128.846 Y106.412 E11.53961
G3 X128.350 Y106.662 I-0.923 J-1.214 E11.56496
G1 X128.35 Y89.425 E12.34864
G2 X127.854 Y89.665 I0.416 J1.492 E12.37376
G1 X127.854 Y106.874 E13.15616
G3 X127.358 Y107.018 I-0.649 J-1.309 E13.17972
G1 X127.358 Y89.932 E13.95653
G2 X126.862 Y90.307 I0.790 J1.560 E13.98486
G1 X126.862 Y107.131 E14.74976
G3 X126.366 Y107.191 I-0.414 J-1.346 E14.77256
G1 X126.366 Y90.729 E15.521
G1 X125.87 Y91.297 E15.55528
G1 X125.87 Y107.214 E16.27894
G3 X125.374 Y107.198 I-0.203 J-1.415 E16.30158
G1 X125.374 Y92.057 E16.98996
G1 X125.188 Y92.369 E17.00647
G1 X124.878 Y93.193 E17.0465
G1 X124.878 Y107.131 E17.68019
G3 X124.382 Y107.037 I0.005 J-1.384 E17.70322
G1 X124.382 Y95.473 E18.22897
G1 X123.886 Y95.634 E18.25268
G1 X123.886 Y106.876 E18.7638
G1 X123.659 Y106.802 E18.77466
G1 X123.39 Y107.359 E18.80278
G1 X123.39 Y95.82 E19.3274
G1 X122.895 Y96.086 E19.35295
G1 X122.895 Y108.259 E19.90639
G1 X122.579 Y108.692 E19.93076
G3 X122.895 Y109.411 I-1.807 J1.223 E19.96656
G1 X122.895 Y113.314 E20.14401
G1 X122.854 Y113.463 E20.15104
G1 X122.399 Y114.407 E20.19868
G1 X122.399 Y96.395 E21.01759
G1 X121.903 Y96.79 E21.04642
G1 X121.903 Y115.097 E21.87874
G3 X121.407 Y115.632 I-1.732 J-1.108 E21.91203
G1 X121.407 Y97.295 E22.74572
G2 X120.911 Y97.919 I1.488 J1.692 E22.78207
G1 X120.911 Y116.084 E23.60794
G1 X120.415 Y116.412 E23.63498
G1 X120.415 Y98.801 E24.43566
G1 X120.21 Y99.347 E24.46218
G1 X119.919 Y99.281 E24.47575
G1 X119.919 Y116.699 E25.26766
G1 X119.423 Y116.911 E25.29218
G1 X119.423 Y99.167 E26.09891
G1 X118.927 Y99.054 E26.12204
G1 X118.927 Y117.088 E26.94195
G1 X118.431 Y117.201 E26.96508
G1 X118.431 Y99 E27.79258
G1 X117.935 Y98.977 E27.81515
G1 X117.935 Y117.291 E28.64779
G1 X117.439 Y117.313 E28.67036
G1 X117.439 Y98.999 E29.503
G1 X116.943 Y99.066 E29.52576
G1 X116.943 Y117.327 E30.35599
G1 X116.447 Y117.26 E30.37875
G1 X116.447 Y99.166 E31.20139
G1 X115.951 Y99.327 E31.2251
G1 X115.951 Y117.639 E32.05765
G1 X115.455 Y117.639 E32.0802
G1 X115.455 Y99.519 E32.90402
G1 X114.959 Y99.786 E32.92963
G1 X114.959 Y117.639 E33.74131
G1 X114.463 Y117.639 E33.76386
G1 X114.463 Y100.102 E34.56118
G1 X113.968 Y100.498 E34.59
G1 X113.968 Y117.639 E35.36931
G1 X113.472 Y117.639 E35.39186
G1 X113.472 Y101.014 E36.14771
G1 X113.196 Y101.329 E36.16675
G1 X112.976 Y101.184 E36.17873
G1 X112.976 Y117.639 E36.92685
G1 X112.48 Y117.639 E36.9494
G1 X112.48 Y100.897 E37.71057
G1 X111.984 Y100.685 E37.73509
G1 X111.984 Y117.639 E38.5059
G1 X111.488 Y117.639 E38.52845
G1 X111.488 Y100.509 E39.30726
G1 X110.992 Y100.396 E39.33039
G1 X110.992 Y117.639 E40.11434
G1 X110.496 Y117.639 E40.13689
G1 X110.496 Y100.306 E40.92493
G1 X110 Y100.284 E40.9475
G1 X110 Y117.639 E41.73654
G1 X109.504 Y117.639 E41.75909
G1 X109.504 Y100.27 E42.54877
G1 X109.008 Y100.338 E42.57153
G1 X109.008 Y117.639 E43.35812
G1 X108.512 Y117.639 E43.38067
G1 X108.512 Y100.405 E44.16421
G1 X108.016 Y100.562 E44.18786
G1 X108.016 Y117.639 E44.96426
G1 X107.52 Y117.639 E44.98681
G1 X107.52 Y100.723 E45.75589
G1 X107.024 Y100.98 E45.78129
G1 X107.024 Y117.639 E46.53869
G1 X106.528 Y117.639 E46.56124
G1 X106.528 Y101.125 E47.31205
G2 X106.032 Y100.715 I-1.387 J1.173 E47.34141
G1 X106.032 Y117.639 E48.11086
G1 X105.537 Y117.639 E48.13337
G1 X105.537 Y100.388 E48.91768
G2 X105.041 Y100.133 I-0.939 J1.216 E48.94314
G1 X105.041 Y117.639 E49.73905
G1 X104.545 Y117.639 E49.7616
G1 X104.545 Y99.921 E50.56715
G2 X104.049 Y99.772 I-0.656 J1.284 E50.59079
G1 X104.049 Y117.639 E51.40311
G1 X103.553 Y117.639 E51.42566
G1 X103.553 Y99.659 E52.24312
G2 X103.057 Y99.595 I-0.427 J1.352 E52.26595
G1 X103.057 Y117.639 E53.08632
G1 X102.561 Y117.639 E53.10887
G1 X102.561 Y99.573 E53.93024
G2 X102.065 Y99.584 I-0.217 J1.383 E53.95288
G1 X102.065 Y117.639 E54.77375
G1 X101.569 Y117.639 E54.7963
G1 X101.569 Y99.651 E55.61412
G2 X101.073 Y99.741 I0.003 J1.426 E55.63710
G1 X101.073 Y117.639 E56.45083
G1 X100.577 Y117.639 E56.47338
G1 X100.577 Y99.902 E57.27979
G1 X100.464 Y99.939 E57.2852
G1 X100.146 Y98.787 E57.33953
G1 X100.081 Y98.652 E57.34634
G1 X100.081 Y117.639 E58.20958
G1 X99.585 Y117.639 E58.23213
G1 X99.585 Y97.69 E59.13911
G1 X99.089 Y97.007 E59.17749
G1 X99.089 Y117.639 E60.11552
G1 X98.593 Y117.639 E60.13807
G1 X98.593 Y96.517 E61.09838
G2 X98.097 Y96.095 I-1.434 J1.183 E61.12809
G1 X98.097 Y117.639 E62.10758
G1 X97.983 Y117.639 E62.11276
G3 X97.601 Y117.145 I1.175 J-1.303 E62.14125
G1 X97.601 Y110.477 E62.44441
G1 X97.159 Y111.218 E62.48364
G1 X97.105 Y111.36 E62.49055
G1 X97.105 Y116.263 E62.71346
G3 X96.610 Y114.450 I4.746 J-2.270 E62.79925
G1 X96.61 Y112.109 E62.90568
M204 S20000
G1 X97.601 Y109.253 F18000
M204 S5000
G1 F4800
G1 X97.601 Y95.768 E63.51877
G2 X97.105 Y95.505 I-0.962 J1.215 E63.54440
G1 X97.105 Y108.044 E64.11448
G1 X96.61 Y106.723 E64.17862
G1 X96.61 Y95.293 E64.69828
G2 X96.114 Y95.138 I-0.671 J1.275 E64.72200
G1 X96.114 Y106.636 E65.24475
G1 X95.618 Y106.749 E65.26788
G1 X95.618 Y91.704 E65.9519
G2 X95.122 Y90.466 I-3.654 J0.746 E66.01276
G1 X95.122 Y106.82 E66.75629
G1 X94.626 Y106.843 E66.77886
G1 X94.626 Y89.71 E67.55781
G2 X94.130 Y89.136 I-1.843 J1.091 E67.59244
G1 X94.13 Y106.838 E68.39726
G1 X93.634 Y106.77 E68.42002
G1 X93.634 Y88.662 E69.2433
G1 X93.138 Y88.329 E69.27046
G1 X93.138 Y106.688 E70.10515
G1 X92.642 Y106.527 E70.12886
G1 X92.642 Y88.019 E70.97032
G1 X92.146 Y87.807 E70.99484
G1 X92.146 Y106.354 E71.83808
G1 X91.65 Y106.087 E71.86369
G1 X91.65 Y87.612 E72.70365
G1 X91.154 Y87.499 E72.72678
G1 X91.154 Y105.794 E73.55856
G1 X90.658 Y105.398 E73.58742
G1 X90.658 Y87.391 E74.4061
G1 X90.162 Y87.369 E74.42867
G1 X90.162 Y104.914 E75.22635
G1 X89.714 Y104.4 E75.25735
G1 X89.666 Y104.321 E75.26155
G1 X89.666 Y87.347 E76.03327
G1 X89.17 Y87.405 E76.05597
G1 X89.17 Y103.491 E76.78732
G1 X88.788 Y102.477 E76.83658
G1 X88.674 Y101.853 E76.86542
G1 X88.674 Y87.472 E77.51925
G2 X88.179 Y87.611 I0.137 J1.440 E77.54269
G1 X88.179 Y99.02 E78.0614
G1 X87.683 Y98.859 E78.08511
G1 X87.683 Y87.772 E78.58918
G2 X87.187 Y88.008 I0.387 J1.453 E78.61423
G1 X87.187 Y98.623 E79.09684
G1 X86.691 Y98.356 E79.12245
G1 X86.691 Y88.275 E79.58078
G2 X86.195 Y88.646 I0.758 J1.530 E79.60901
G1 X86.195 Y97.986 E80.03365
G3 X85.699 Y97.571 I0.907 J-1.588 E80.06311
G1 X85.699 Y89.061 E80.45002
G1 X85.203 Y89.629 E80.4843
G1 X85.203 Y97.003 E80.81956
G3 X84.707 Y96.253 I1.817 J-1.741 E80.86056
G1 X84.707 Y90.378 E81.12767
G1 X84.501 Y90.722 E81.1459
G1 X84.211 Y91.496 E81.18348
G1 X84.211 Y95.707 E81.37493
M204 S20000
;WIPE_START
G1 F14400
G1 X84.211 Y91.496 E80.04145
G1 X84.501 Y90.722 E79.77971
G1 X84.707 Y90.378 E79.65274
G1 X84.707 Y92.834 E78.87493
;WIPE_END
G92 E0
G1 X116.127 Y121.588 F18000
G1 E2.5 F4800
M204 S5000
G1 X116.61 Y122.624 E2.55197
G3 X104.775 Y121.588 I-6.159 J2.238 E3.74667
G1 X105.214 Y120.961 E3.78147
G1 X115.688 Y120.961 E4.25767
G1 X116.089 Y121.534 E4.28947
M204 S20000
G1 X116.447 Y126.938 F18000
M204 S5000
G1 F4800
G1 X116.447 Y123.57 E4.4426
G2 X115.951 Y122.162 I-4.220 J0.695 E4.51073
G1 X115.951 Y127.569 E4.75656
G3 X115.455 Y128.401 I-2.575 J-0.971 E4.80076
G1 X115.455 Y121.363 E5.12074
G1 X114.959 Y121.363 E5.14329
G1 X114.959 Y129.023 E5.49155
G1 X114.463 Y129.519 E5.52344
G1 X114.463 Y121.363 E5.89425
G1 X113.968 Y121.363 E5.91676
G1 X113.968 Y129.884 E6.30417
G1 X113.472 Y130.218 E6.33136
G1 X113.472 Y121.363 E6.73395
G1 X112.976 Y121.363 E6.7565
G1 X112.976 Y130.449 E7.16959
G1 X112.48 Y130.666 E7.1942
G1 X112.48 Y121.363 E7.61716
G1 X111.984 Y121.363 E7.63971
G1 X111.984 Y130.799 E8.06872
G1 X111.488 Y130.926 E8.092
G1 X111.488 Y121.363 E8.52678
G1 X110.992 Y121.363 E8.54933
G1 X110.992 Y130.969 E8.98606
G1 X110.496 Y131.013 E9.0087
G1 X110.496 Y121.363 E9.44744
G1 X110 Y121.363 E9.46999
G1 X110 Y130.977 E9.90709
G1 X109.504 Y130.934 E9.92973
G1 X109.504 Y121.363 E10.36487
G1 X109.008 Y121.363 E10.38742
G1 X109.008 Y130.823 E10.81752
G1 X108.512 Y130.69 E10.84087
G1 X108.512 Y121.363 E11.26492
G1 X108.016 Y121.363 E11.28747
G1 X108.016 Y130.491 E11.70247
G1 X107.52 Y130.26 E11.72735
G1 X107.52 Y121.363 E12.13185
G1 X107.024 Y121.363 E12.1544
G1 X107.024 Y129.947 E12.54467
G1 X106.528 Y129.6 E12.57219
G1 X106.528 Y121.363 E12.94668
G1 X106.032 Y121.363 E12.96923
G1 X106.032 Y129.113 E13.32158
G3 X105.537 Y128.530 I1.414 J-1.702 E13.35648
G1 X105.537 Y121.363 E13.68233
G1 X105.423 Y121.363 E13.68751
G2 X105.041 Y121.969 I1.506 J1.373 E13.72018
G1 X105.041 Y127.763 E13.9836
G3 X104.545 Y126.499 I3.344 J-2.042 E14.04555
G1 X104.545 Y122.557 E14.22477
M204 S20000
;WIPE_START
G1 F14400
G1 X104.545 Y126.499 E12.97647
G2 X105.041 Y127.763 I3.840 J-0.778 E12.54499
G1 X105.041 Y125.173 E11.72477
;WIPE_END
G92 E0
G1 X137.25 Y120.474 F18000
G1 E2.5 F4800
M204 S5000
;TYPE:External perimeter
;WIDTH:0.499999
G2 X137.027 Y120.251 I-0.224 J0.000 E2.51548
G1 X82.973 Y120.251 E4.97303
